X:25
T:Kid on the Mountain, The
M:9/8
Z:O'Neill's has a sixth part that I've never heard played. 
R:slip jig
E:13
K:G
~E3 FEF  ~G3| ~E3 c2 A BGE|EDE FEF G2 A|BAG FAG FED:|
BGB AFA G2D|GAB dge dBA|BGB AFA G2 A|BAG FAG FED:|
egg eBB e2 f|~g3 efg afd|egg eBB ega|bag fag fed:|
eBB e2 f ~g3| eBB efg afd|eBB e2f g2 a|bag fag fed:|
edB dBA G2 D|GAB dge dBd|edB dBA G2 A|BAG FAG FED:|
********************************** REELS *****************************
<end>
<start>
